; generated by PrusaSlicer 2.4.0+win64 on 2022-03-17 at 15:47:41 UTC

; 

; external perimeters extrusion width = 0.45mm
; perimeters extrusion width = 0.45mm
; infill extrusion width = 0.45mm
; solid infill extrusion width = 0.45mm
; top infill extrusion width = 0.40mm
; first layer extrusion width = 0.42mm

M73 P0 R29
M73 Q0 S29
M201 X1000 Y1000 Z200 E5000 ; sets maximum accelerations, mm/sec^2
M203 X200 Y200 Z12 E120 ; sets maximum feedrates, mm/sec
M204 P1250 R1250 T1250 ; sets acceleration (P, T) and retract acceleration (R), mm/sec^2
M205 X8.00 Y8.00 Z0.40 E4.50 ; sets the jerk limits, mm/sec
M205 S0 T0 ; sets the minimum extruding and travel feed rate, mm/sec
M107
;TYPE:Custom
M862.3 P "MK3S" ; printer model check
M862.1 P0.4 ; nozzle diameter check
M115 U3.10.1 ; tell printer latest fw version
G90 ; use absolute coordinates
M83 ; extruder relative mode
M104 S215 ; set extruder temp
M140 S60 ; set bed temp
M190 S60 ; wait for bed temp
M109 S215 ; wait for extruder temp
G28 W ; home all without mesh bed level
G80 ; mesh bed leveling
G1 Z0.2 F720
G1 Y-3 F1000 ; go outside print area
G92 E0
G1 X60 E9 F1000 ; intro line
G1 X100 E12.5 F1000 ; intro line
G92 E0
M221 S100

; Don't change E values below. Excessive value can damage the printer.
M907 E430 ; set extruder motor current
G21 ; set units to millimeters
G90 ; use absolute coordinates
M83 ; use relative distances for extrusion
M900 K0.05 ; Filament gcode LA 1.5
M900 K30 ; Filament gcode LA 1.0
M107
;LAYER_CHANGE
;Z:0.2
;HEIGHT:0.2
;BEFORE_LAYER_CHANGE
G92 E0.0
;0.2


G1 E-.8 F2100
G1 Z.4 F720
;AFTER_LAYER_CHANGE
;0.2
G1 X112.679 Y85.912 F10800
G1 Z.2 F720
G1 E.8 F2100
M204 S800
;TYPE:Skirt/Brim
;WIDTH:0.42
G1 F1200
G1 X113.526 Y84.801 E.04381
G1 X114.416 Y84.352 E.03127
G1 X117.794 Y83.362 E.11035
G1 X119.058 Y83.17 E.04009
G1 X130.58 Y83.151 E.36124
G1 X132.071 Y83.333 E.04713
G1 X135.366 Y84.224 E.10702
G1 X136.632 Y84.973 E.04612
G1 X137.196 Y85.837 E.03233
G1 X142.261 Y98.253 E.42046
G1 X142.531 Y99.348 E.03537
G1 X142.658 Y100.382 E.03265
G1 X142.669 Y101.475 E.03428
G1 X142.527 Y102.752 E.04028
G1 X142.035 Y104.591 E.0597
G1 X137.738 Y115.525 E.36833
G1 X136.82 Y117.443 E.06668
G1 X135.679 Y119.13 E.06386
G1 X131.952 Y123.72 E.18539
G1 X131.034 Y124.606 E.04
G1 X129.92 Y125.421 E.04327
G1 X128.53 Y126.136 E.04904
G1 X126.708 Y126.679 E.05959
G1 X125.029 Y126.839 E.05288
G1 X123.502 Y126.717 E.04804
G1 X122.318 Y126.44 E.03814
G1 X120.817 Y125.837 E.05071
G1 X119.651 Y125.136 E.04265
G1 X118.6 Y124.28 E.04252
G1 X115.533 Y121.09 E.13874
G1 X113.165 Y117.415 E.13707
G1 X112.22 Y115.416 E.06934
G1 X107.856 Y104.276 E.3751
G1 X107.529 Y103.048 E.03984
M73 P0 R28
G1 X107.36 Y101.894 E.03657
G1 X107.334 Y100.53 E.0428
G1 X107.442 Y99.512 E.03208
G1 X107.901 Y97.782 E.05615
G1 X112.642 Y85.96 E.39937
M204 S1000
G1 X112.984 Y86.111 F10800
M204 S800
G1 F1200
G1 X113.834 Y85.043 E.04278
G1 X114.522 Y84.714 E.02394
G1 X117.9 Y83.724 E.11035
G1 X119.104 Y83.545 E.03817
G1 X130.58 Y83.528 E.3598
G1 X131.973 Y83.697 E.04401
G1 X135.268 Y84.588 E.10702
G1 X136.428 Y85.307 E.04278
G1 X136.847 Y85.98 E.02485
G1 X141.904 Y98.372 E.41967
G1 X142.161 Y99.422 E.03387
G1 X142.282 Y100.413 E.0313
G1 X142.292 Y101.45 E.03251
G1 X142.154 Y102.694 E.03926
G1 X141.683 Y104.458 E.05724
G1 X137.39 Y115.379 E.36793
G1 X136.492 Y117.257 E.06528
G1 X135.385 Y118.895 E.06197
G1 X131.675 Y123.463 E.18452
G1 X130.797 Y124.313 E.03833
G1 X129.713 Y125.106 E.04209
G1 X128.394 Y125.785 E.04653
G1 X126.633 Y126.31 E.05763
M73 Q0 S28
G1 X125.019 Y126.462 E.05082
G1 X123.557 Y126.344 E.04597
G1 X122.436 Y126.082 E.03611
G1 X120.992 Y125.503 E.04877
G1 X119.875 Y124.832 E.04086
M73 Q1 S28
G1 X118.852 Y123.999 E.04136
G1 X115.849 Y120.884 E.13568
G1 X113.488 Y117.22 E.13667
M73 P1 R28
G1 X112.569 Y115.273 E.0675
G1 X108.217 Y104.165 E.37405
G1 X107.899 Y102.976 E.03857
G1 X107.736 Y101.869 E.0351
G1 X107.711 Y100.54 E.04166
G1 X107.815 Y99.563 E.03081
G1 X108.251 Y97.922 E.05325
G1 X112.962 Y86.166 E.39708
M204 S1000
;WIPE_START
G1 F8640
G1 X113.834 Y85.043 E-.32835
G1 X114.522 Y84.714 E-.17627
G1 X115.584 Y84.403 E-.25538
;WIPE_END
G1 E-.04 F2100
G1 Z.6 F720
G1 X115.466 Y88.067 F10800
G1 Z.2 F720
G1 E.8 F2100
M204 S800
G1 F1200
G1 X115.728 Y87.723 E.01356
G1 X116.577 Y87.056 E.03384
G1 X117.255 Y86.7 E.02401
G1 X119.033 Y86.239 E.0576
G1 X120.351 Y86.23 E.04134
G1 X121.88 Y86.335 E.04805
G1 X123.193 Y86.226 E.04128
G1 X124.29 Y86.214 E.03441
G1 X125.004 Y86.343 E.02277
G1 X125.753 Y86.21 E.02386
G1 X126.716 Y86.222 E.03019
G1 X128.119 Y86.335 E.04412
G1 X129.69 Y86.229 E.04939
G1 X131.089 Y86.255 E.04388
G1 X132.862 Y86.748 E.05768
G1 X133.707 Y87.246 E.03077
G1 X134.526 Y87.997 E.03482
G1 X135.141 Y88.912 E.03456
G1 X135.531 Y89.902 E.03337
G1 X135.688 Y91.446 E.04865
G1 X135.342 Y92.979 E.0493
G1 X134.842 Y93.913 E.03319
G1 X134.584 Y94.299 E.01457
G1 X135.167 Y95.165 E.03272
G1 X135.349 Y95.498 E.01191
G1 X136.059 Y95.671 E.02291
G1 X137.07 Y96.145 E.03501
G1 X138.131 Y97.01 E.04293
G1 X138.816 Y97.946 E.03636
G1 X139.307 Y99.013 E.03682
G1 X139.574 Y100.128 E.03595
G1 X139.632 Y101.299 E.03676
G1 X139.513 Y102.329 E.03253
G1 X139.257 Y103.319 E.03206
G1 X138.978 Y104.058 E.02476
G1 X138.628 Y104.787 E.02535
G1 X138.051 Y105.749 E.03518
G1 X137.401 Y106.625 E.03421
G1 X136.49 Y107.631 E.04256
G1 X135.521 Y108.493 E.04065
G1 X135.617 Y109.127 E.0201
G1 X135.674 Y110.004 E.02756
G1 X135.665 Y110.861 E.02687
G1 X135.589 Y111.727 E.02727
G1 X135.445 Y112.597 E.02764
G1 X135.231 Y113.463 E.02799
G1 X134.936 Y114.342 E.02905
G1 X134.592 Y115.147 E.02745
G1 X134.208 Y115.884 E.02605
G1 X133.765 Y116.597 E.02632
G1 X133.235 Y117.318 E.02805
G1 X132.637 Y118.004 E.02856
G1 X132.016 Y118.609 E.02715
G1 X131.398 Y119.124 E.02522
G1 X131.081 Y119.345 E.01213
G1 X130.933 Y119.76 E.0138
G1 X130.607 Y120.414 E.02292
G1 X130.169 Y121.096 E.02543
G1 X129.548 Y121.836 E.03027
G1 X128.848 Y122.464 E.0295
G1 X127.861 Y123.095 E.03673
G1 X126.681 Y123.563 E.03978
G1 X125.487 Y123.778 E.03806
G1 X124.263 Y123.753 E.03837
G1 X122.679 Y123.346 E.05129
G1 X121.592 Y122.778 E.03843
G1 X120.63 Y122.014 E.03852
G1 X119.828 Y121.091 E.03835
G1 X119.576 Y120.692 E.0148
G1 X118.834 Y120.188 E.02812
G1 X118.135 Y119.411 E.03276
G1 X117.528 Y118.279 E.04027
G1 X117.471 Y118.101 E.00587
G1 X117.21 Y117.84 E.01156
G1 X116.672 Y117.2 E.02622
G1 X116.16 Y116.486 E.02755
G1 X115.734 Y115.781 E.02583
G1 X115.359 Y115.041 E.02601
G1 X115.032 Y114.257 E.02663
G1 X114.751 Y113.399 E.02833
G1 X114.546 Y112.552 E.02732
G1 X114.405 Y111.684 E.02754
G1 X114.333 Y110.804 E.0277
G1 X114.327 Y109.943 E.02701
G1 X114.389 Y109.069 E.02745
G1 X114.478 Y108.482 E.01863
G1 X113.78 Y107.891 E.02866
G1 X112.833 Y106.906 E.04286
G1 X112.298 Y106.241 E.02676
G1 X111.885 Y105.652 E.02256
G1 X111.41 Y104.859 E.02897
G1 X111.037 Y104.094 E.0267
G1 X110.752 Y103.347 E.02505
G1 X110.473 Y102.252 E.03544
G1 X110.363 Y101.017 E.03889
G1 X110.494 Y99.73 E.04054
G1 X110.883 Y98.526 E.03969
G1 X111.613 Y97.31 E.04445
G1 X112.985 Y96.109 E.05718
G1 X114.101 Y95.618 E.03824
G1 X114.651 Y95.499 E.01762
G1 X114.833 Y95.166 E.01192
G1 X115.419 Y94.295 E.0329
G1 X114.73 Y93.143 E.04209
G1 X114.324 Y91.603 E.04993
G1 X114.443 Y90.006 E.05021
G1 X114.944 Y88.755 E.04225
G1 X115.43 Y88.115 E.0252
M204 S1000
G1 X115.728 Y88.339 F10800
M204 S800
G1 F1200
G1 X115.98 Y88.004 E.01316
G1 X116.795 Y87.364 E.03249
G1 X117.409 Y87.045 E.02168
G1 X119.103 Y86.61 E.05485
G1 X120.332 Y86.607 E.03852
G1 X121.883 Y86.713 E.04875
G1 X123.217 Y86.603 E.04197
G1 X124.275 Y86.591 E.03318
G1 X125.004 Y86.727 E.02324
G1 X125.767 Y86.587 E.02435
G1 X126.705 Y86.599 E.0294
G1 X128.116 Y86.713 E.0444
G1 X129.693 Y86.606 E.04955
G1 X131.013 Y86.625 E.04141
G1 X132.694 Y87.086 E.05463
G1 X133.469 Y87.539 E.02815
G1 X134.227 Y88.228 E.03211
G1 X134.798 Y89.07 E.0319
G1 X135.17 Y90.015 E.03187
G1 X135.31 Y91.451 E.04524
G1 X134.998 Y92.824 E.04412
G1 X134.514 Y93.726 E.0321
G1 X134.116 Y94.32 E.02243
G1 X134.444 Y94.75 E.01696
G1 X134.846 Y95.364 E.02302
G1 X135.099 Y95.827 E.01653
G1 X135.919 Y96.021 E.02643
G1 X136.851 Y96.452 E.03218
G1 X137.873 Y97.287 E.04138
G1 X138.5 Y98.152 E.03349
G1 X138.945 Y99.119 E.0334
G1 X139.198 Y100.165 E.03374
G1 X139.256 Y101.272 E.03474
G1 X139.144 Y102.248 E.0308
G1 X138.894 Y103.215 E.03132
G1 X138.635 Y103.903 E.02305
G1 X138.3 Y104.601 E.02427
G1 X137.742 Y105.532 E.03404
G1 X137.116 Y106.379 E.03304
G1 X136.218 Y107.37 E.04194
G1 X135.118 Y108.347 E.04612
G1 X135.241 Y109.16 E.02577
G1 X135.298 Y110.021 E.02708
G1 X135.288 Y110.849 E.02596
G1 X135.214 Y111.687 E.02637
G1 X135.077 Y112.514 E.02628
G1 X134.87 Y113.351 E.02704
G1 X134.586 Y114.201 E.0281
G1 X134.254 Y114.98 E.02653
G1 X133.884 Y115.691 E.02516
G1 X133.457 Y116.38 E.0254
G1 X132.946 Y117.076 E.02708
G1 X132.368 Y117.74 E.02759
G1 X131.769 Y118.324 E.02622
G1 X131.163 Y118.829 E.02473
G1 X130.766 Y119.105 E.01518
G1 X130.59 Y119.602 E.01652
G1 X130.274 Y120.236 E.02222
G1 X129.858 Y120.882 E.0241
G1 X129.286 Y121.565 E.02792
G1 X128.631 Y122.155 E.02766
G1 X127.703 Y122.752 E.03457
G1 X126.596 Y123.195 E.03742
G1 X125.439 Y123.403 E.03685
G1 X124.294 Y123.377 E.03592
G1 X122.834 Y123.001 E.04725
G1 X121.783 Y122.452 E.03718
G1 X120.88 Y121.73 E.03626
G1 X120.123 Y120.856 E.03626
G1 X119.853 Y120.423 E.01599
G1 X119.098 Y119.918 E.02849
G1 X118.431 Y119.176 E.03127
G1 X117.871 Y118.122 E.03743
G1 X117.807 Y117.903 E.00714
G1 X117.493 Y117.591 E.01389
G1 X116.965 Y116.963 E.02572
G1 X116.479 Y116.284 E.02617
G1 X116.06 Y115.592 E.02537
G1 X115.698 Y114.877 E.02512
G1 X115.383 Y114.119 E.02574
G1 X115.112 Y113.289 E.02741
G1 X114.914 Y112.47 E.0264
G1 X114.779 Y111.632 E.02663
G1 X114.71 Y110.794 E.02635
G1 X114.704 Y109.962 E.0261
G1 X114.765 Y109.104 E.02698
G1 X114.883 Y108.33 E.02455
G1 X114.045 Y107.622 E.03438
G1 X113.121 Y106.663 E.04176
G1 X112.596 Y106.009 E.02629
G1 X112.197 Y105.441 E.02176
G1 X111.738 Y104.673 E.02807
G1 X111.38 Y103.936 E.02567
G1 X111.115 Y103.243 E.02328
G1 X110.848 Y102.202 E.0337
G1 X110.74 Y101.035 E.03674
G1 X110.859 Y99.827 E.03807
G1 X111.235 Y98.663 E.03835
G1 X111.92 Y97.53 E.04149
G1 X113.163 Y96.443 E.05179
G1 X114.234 Y95.972 E.0367
G1 X114.898 Y95.833 E.02126
G1 X115.154 Y95.364 E.01675
G1 X115.556 Y94.75 E.02303
G1 X115.88 Y94.326 E.01672
G1 X115.087 Y93.018 E.04797
G1 X114.702 Y91.597 E.04616
G1 X114.804 Y90.117 E.04651
G1 X115.261 Y88.961 E.03897
G1 X115.692 Y88.387 E.0225
M204 S1000
G1 X115.992 Y88.61 F10800
M204 S800
G1 F1200
G1 X116.233 Y88.285 E.01271
G1 X117.014 Y87.672 E.03111
G1 X117.562 Y87.39 E.01931
G1 X119.173 Y86.981 E.05212
G1 X120.312 Y86.983 E.03572
G1 X121.886 Y87.091 E.04946
G1 X123.241 Y86.979 E.04265
G1 X124.26 Y86.968 E.03193
G1 X125.003 Y87.111 E.02373
G1 X125.782 Y86.964 E.02485
G1 X126.694 Y86.976 E.02859
G1 X128.114 Y87.091 E.04468
G1 X129.712 Y86.982 E.05021
G1 X130.939 Y86.995 E.03848
G1 X132.527 Y87.425 E.05158
G1 X133.232 Y87.833 E.02554
G1 X133.928 Y88.459 E.02935
G1 X134.474 Y89.263 E.03048
G1 X134.809 Y90.127 E.02903
G1 X134.931 Y91.455 E.04184
G1 X134.654 Y92.668 E.03899
G1 X134.186 Y93.541 E.03107
G1 X133.924 Y93.938 E.01492
G1 X133.625 Y94.3 E.01472
G1 X134.133 Y94.962 E.02616
G1 X134.526 Y95.564 E.02256
G1 X134.849 Y96.156 E.02114
G1 X135.779 Y96.372 E.02993
G1 X136.671 Y96.784 E.03081
G1 X137.583 Y97.529 E.03691
G1 X138.165 Y98.327 E.03097
G1 X138.595 Y99.26 E.03221
G1 X138.827 Y100.236 E.03145
G1 X138.879 Y101.245 E.03168
G1 X138.771 Y102.192 E.02989
G1 X138.532 Y103.11 E.02975
G1 X138.291 Y103.747 E.02137
G1 X137.972 Y104.415 E.0232
G1 X137.434 Y105.316 E.0329
G1 X136.83 Y106.133 E.03188
G1 X135.959 Y107.096 E.04068
G1 X134.973 Y107.973 E.04138
G1 X134.709 Y108.168 E.0103
G1 X134.866 Y109.192 E.0325
G1 X134.921 Y110.039 E.02658
G1 X134.911 Y110.837 E.02504
G1 X134.839 Y111.647 E.02548
G1 X134.709 Y112.431 E.02492
G1 X134.51 Y113.239 E.0261
G1 X134.236 Y114.061 E.02715
G1 X133.916 Y114.812 E.02562
G1 X133.559 Y115.499 E.02427
G1 X133.148 Y116.163 E.02448
G1 X132.656 Y116.835 E.02612
G1 X132.099 Y117.476 E.02662
G1 X131.522 Y118.039 E.02527
G1 X130.929 Y118.533 E.02423
G1 X130.45 Y118.865 E.01825
G1 X130.248 Y119.445 E.01924
G1 X129.941 Y120.058 E.02151
G1 X129.548 Y120.668 E.02276
G1 X129.023 Y121.294 E.02562
G1 X128.413 Y121.848 E.02583
G1 X127.545 Y122.409 E.0324
G1 X126.508 Y122.828 E.03506
G1 X125.428 Y123.026 E.03444
G1 X124.324 Y123 E.03463
G1 X122.988 Y122.657 E.04323
G1 X122.004 Y122.146 E.03477
G1 X121.129 Y121.447 E.03511
G1 X120.419 Y120.622 E.03413
G1 X120.13 Y120.154 E.01723
G1 X119.362 Y119.647 E.02887
G1 X118.727 Y118.942 E.02974
G1 X118.216 Y117.968 E.0345
G1 X118.147 Y117.709 E.0084
G1 X117.776 Y117.341 E.01636
G1 X117.259 Y116.726 E.02522
G1 X116.798 Y116.083 E.0248
G1 X116.393 Y115.415 E.02448
G1 X116.038 Y114.713 E.02467
G1 X115.734 Y113.982 E.02483
G1 X115.472 Y113.179 E.02648
G1 X115.282 Y112.389 E.02547
M73 Q2 S28
G1 X115.154 Y111.593 E.02528
G1 X115.087 Y110.784 E.02545
G1 X115.081 Y109.981 E.02518
G1 X115.14 Y109.138 E.0265
G1 X115.288 Y108.178 E.03046
G1 X114.31 Y107.354 E.0401
M73 P2 R28
G1 X113.41 Y106.42 E.04065
G1 X112.894 Y105.778 E.02583
G1 X112.51 Y105.231 E.02097
G1 X112.066 Y104.487 E.02716
G1 X111.723 Y103.779 E.02465
G1 X111.477 Y103.138 E.02154
G1 X111.221 Y102.151 E.03196
G1 X111.117 Y101.054 E.03455
G1 X111.233 Y99.884 E.03684
G1 X111.587 Y98.801 E.03573
G1 X112.227 Y97.751 E.03855
G1 X113.341 Y96.776 E.04643
G1 X114.367 Y96.325 E.03513
G1 X115.145 Y96.169 E.02489
G1 X115.474 Y95.564 E.02158
G1 X115.867 Y94.962 E.02256
G1 X116.373 Y94.302 E.02607
G1 X116.082 Y93.946 E.01442
G1 X115.443 Y92.891 E.03868
G1 X115.08 Y91.588 E.04242
G1 X115.166 Y90.226 E.0428
G1 X115.579 Y89.165 E.03569
G1 X115.956 Y88.658 E.01979
M204 S1000
G1 X116.257 Y88.879 F10800
M204 S800
G1 F1200
G1 X116.487 Y88.565 E.01221
G1 X117.232 Y87.98 E.02969
G1 X117.713 Y87.737 E.01691
G1 X119.241 Y87.353 E.0494
G1 X120.291 Y87.36 E.03295
G1 X121.888 Y87.469 E.05019
G1 X123.265 Y87.355 E.04333
G1 X124.244 Y87.345 E.03067
G1 X125.002 Y87.495 E.02424
G1 X125.797 Y87.342 E.02538
G1 X126.682 Y87.353 E.02777
G1 X128.111 Y87.469 E.04495
G1 X129.731 Y87.359 E.05089
G1 X130.866 Y87.366 E.03559
G1 X132.362 Y87.765 E.04854
G1 X132.997 Y88.128 E.02295
G1 X133.63 Y88.692 E.02659
G1 X134.13 Y89.421 E.02771
G1 X134.448 Y90.238 E.02748
G1 X134.553 Y91.458 E.0384
G1 X134.309 Y92.512 E.03392
G1 X133.866 Y93.341 E.02947
G1 X133.615 Y93.721 E.01431
G1 X133.124 Y94.312 E.0241
G1 X133.384 Y94.606 E.01229
G1 X133.821 Y95.175 E.0225
G1 X134.207 Y95.764 E.02209
G1 X134.6 Y96.487 E.02578
G1 X135.639 Y96.723 E.03342
G1 X136.491 Y97.117 E.02943
G1 X137.293 Y97.77 E.03243
G1 X137.849 Y98.533 E.0296
G1 X138.244 Y99.399 E.02982
G1 X138.456 Y100.305 E.02918
G1 X138.503 Y101.217 E.02865
G1 X138.398 Y102.135 E.02897
G1 X138.17 Y103.004 E.02817
G1 X137.947 Y103.592 E.01972
G1 X137.644 Y104.229 E.02212
G1 X137.115 Y105.114 E.03233
G1 X136.543 Y105.888 E.03015
G1 X135.701 Y106.821 E.03942
G1 X134.729 Y107.685 E.04076
G1 X134.278 Y108.015 E.01753
G1 X134.376 Y108.444 E.01381
G1 X134.491 Y109.239 E.02516
G1 X134.544 Y110.041 E.02523
G1 X134.535 Y110.811 E.02413
G1 X134.464 Y111.606 E.02502
G1 X134.339 Y112.362 E.02402
G1 X134.15 Y113.127 E.02472
G1 X133.886 Y113.92 E.0262
G1 X133.578 Y114.645 E.02469
G1 X133.228 Y115.319 E.02381
G1 X132.832 Y115.958 E.02357
G1 X132.356 Y116.605 E.02518
G1 X131.83 Y117.211 E.02518
G1 X131.275 Y117.754 E.02433
G1 X130.694 Y118.238 E.02372
G1 X130.134 Y118.625 E.02133
G1 X129.905 Y119.287 E.02197
G1 X129.609 Y119.88 E.02078
G1 X129.238 Y120.453 E.0214
G1 X128.743 Y121.042 E.0241
G1 X128.171 Y121.557 E.02415
G1 X127.386 Y122.067 E.02935
G1 X126.421 Y122.461 E.03268
G1 X125.38 Y122.651 E.03319
G1 X124.355 Y122.624 E.03212
G1 X123.143 Y122.312 E.03925
G1 X122.194 Y121.82 E.03351
G1 X121.379 Y121.165 E.03279
G1 X120.716 Y120.389 E.03202
G1 X120.408 Y119.884 E.01854
G1 X119.625 Y119.376 E.02926
G1 X119.024 Y118.708 E.02817
G1 X118.563 Y117.817 E.03147
G1 X118.489 Y117.517 E.00967
